X:1
T:1. Prelude
T:2. Fuga
T:3. Sarabande
T:4. Gigue
T:5. Double
T:by Mutopia 2013/02/17 - Scritto con MuseScore, un software libero e gratuito: http://musescore.org/it 
T:by Mutopia 2013/02/17 - Scritto con MuseScore, un software libero e gratuito: http://musescore.org/it 
T:by Mutopia 2013/02/17 - Scritto con MuseScore, un software libero e gratuito: http://musescore.org/it 
T:by Mutopia 2013/02/17 - Scritto con MuseScore, un software libero e gratuito: http://musescore.org/it 
T:by Mutopia 2013/02/17 - Scritto con MuseScore, un software libero e gratuito: http://musescore.org/it 
T:by Mutopia 2013/02/17 - Scritto con MuseScore, un software libero e gratuito: http://musescore.org/it 
T:by Mutopia 2013/02/17 - Scritto con MuseScore, un software libero e gratuito: http://musescore.org/it 
T:by Mutopia 2013/02/17 - Scritto con MuseScore, un software libero e gratuito: http://musescore.org/it 
T:by Mutopia 2013/02/17 - Scritto con MuseScore, un software libero e gratuito: http://musescore.org/it 
T:by Mutopia 2013/02/17 - Scritto con MuseScore, un software libero e gratuito: http://musescore.org/it 
Z:by Mutopia 2013/02/17 - Scritto con MuseScore, un software libero e gratuito: http://musescore.org/it
%%score ( 1 2 3 4 )
L:1/8
Q:1/4=80
M:4/4
K:C
V:1 treble-8 nm="Chitarra"
V:2 treble-8 
V:3 treble-8 
V:4 treble-8 
V:1
 z A/B/ce ((^ga)) z a | z A/B/ce ((^ga)) z a | z A/B/ce ((^ga)) z a | %3
 z/ g/f/e/ d/c/B/A/ ((^G/A/))B/F/ Ed | ((c/B/A)) z/ ^G/A/B/ c/e/d/c/ f/e/d/c/ | %5
 d/f/G z/ A/B/c/ d/f/e/d/ g/f/e/d/ | e/d/e/g/ B/A/B/g/ ((c/B/))c/g/ ((d/c/))d/f/ | %7
 e/d/e/c/ e/B/e/A/ ^G/^F/G/^f/ G/e/G/d/ | c/B/c/e/ ac'- c'/e/^d- d/e/^f/g/ | %9
 a/c/B- B/^c/^d/e/ ^f/^G/A- A/=c/B/A/ | G/B/e/^d/ e/B/c/^A/ B/d/^f/e/ f/B/c/A/ | %11
 B/e/g/^f/ g/B/c/^A/ B/f/a- a/c/B/=A/ | G/B/e/^f/ gTf e/A/^G- G/B/c/d/ | %13
 c/F/E- E/G/A/B/ A/E/^D D/c'/b/a/ | g/a/b/e/ g/^f/e/^d/ e/g/^A A/^c/B/A/ | B/^c/^d/e/ ^fA Ge^Fd | %16
 z E/^F/ GB ((^de)) z e | z E/^F/ GB ((^de)) z e | z E/^F/ GB (^de) z e | %19
 z/ d/c/B/ A/G/^F/E/ ^D/E/F/C/ B,A | G/^F/E z/ ^D/E/F/ G/A/B/G/ c/B/A/G/ | %21
 A/c/B/A/ ^G/A/B/c/ d/f/e/d/ e/d/c/B/ | c/B/A z/ ^G/A/B/ c/e/d/c/ f/e/d/c/ | %23
 d/f/e/d/ ^c/d/e/f/ g/_b/a/g/ a/g/f/e/ | ((f/e/f/))a/ ((^c/B/c/))a/ ((d/c/d/))a/ ((e/d/e/))g/ | %25
 f/e/d/e/ f/d/f/c/ _B/A/B/a/ B/g/B/f/ | e/d/c/d/ e/c/e/_B/ A/G/A/g/ A/f/A/e/ | %27
 d/c/_B/c/ d/B/d/A/ G/F/G/f/ G/e/G/d/ | ^c/B/A z/ E/F/G/ ^C/_B/A/G/ e/G/F/E/ | %29
 F/A/G/F/ d/F/E/D/ ^C/_B/A/G/ e/G/F/E/ | F/A/G/F/ d/F/E/D/ _E/F/E/D/ E/_A/G/^F/ | %31
 G/_A/G/^F/ G/_e/d/^c/ d=A g/f/T=e/d/ | df/d/ A_B z e/f/ a_b | z e/c/ ^GA z ^d/e/ ^ga | %34
 z/ g/f/e/ d/c/B/A/ ^G/A/B/F/ E/d/c/B/ | ((c/B/c/))d/ ((^G/^F/G/))e/ ((A/G/A/))e/ ((B/G/A/))e/ | %36
 c/B/A/B/ c/A/c/G/ ((F/E/F/))e/ F/d/F/c/ | B/A/G/A/ B/G/B/F/ ((E/D/E/))d/ E/c/E/B/ | %38
 A/G/F/G/ A/F/A/F/ ((^D/^C/E/))c/ D/B/D/A/ | ^G/f/e/d/ b/f/e/d/ G/f/e/d/ b/f/e/d/ | %40
 ^c/_B/A/G/ e/B/A/G/ ^C/B/A/G/ e/B/A/G/ | ^F/_e/d/c/ a/e/d/c/ F/e/d/c/ a/e/d/c/ | %42
 B/_A/G/F/ d/A/G/F/ B,/A/G/F/ d/A/G/F/ | E/_d/c/_B/ g/d/c/G/ E/d/c/B/ g/d/c/B/ | %44
 A/G/A/^c/ df- f/A/^G- G/A/B/=c/ | d/F/E- E/^F/^G/A/ B/^C/D- D/=F/E/D/ | %46
 C/E/A/^G/ A/E/F/^D/ E/G/B/A/ B/E/F/D/ | E/A/c/B/ c/E/F/^D/ E/B/d- d/f/e/d/ | %48
 c/e/a/b/ c'Tb a/d/^c- c/e/f/g/ | f/_B/A- A/c/d/e/ d/A/^G- G/f/e/d/ | %50
 c/d/c/B/ c/f/e/^d/ e/f/e/d/ e/_b/a/^g/ | ae d'/c'/b/a/ a/b/c'/a/ c'/b/a/g/ | %52
 ^f/g/a/f/ a/g/f/e/ [B^da]2 z2 | [Be^g]2 z/ e/^f/g/ a/b/c'/d'/ e'/d'/f'/e'/ | %54
 d'/c'/b/a/ ^g/f/e/d/ caBTg | [cea]2 z2 z4 |][M:6/8][Q:1/4=100] z AB cde |S F3 ^F3 | G3 ^G3 | %59
 AEA- A^G/^F/G | c3 B2 e | A3- AB/A/G/^F/ | z e^f gab | z BA ^c3 | d3 ^d3 | eBe- e^d/^c/d | %66
 g3 ^f2 b | ^gea- a=g/f/g- | g2 f d^c/B/c | d2 g2 d2- | d g2 f3 | e3 d3 | %72
 [Ac][ce][Bd]- [Bd][Ac][^GB] | A3 CB,A, | B,FE B3- | BA/^G/A d3- | dc/B/c/d/ e3- | ed/c/d/e/ f3- | %78
 fg/f/e/d/ e^fg- | gba g^fe | ^fc'b agf | g3 ^f3 | z ef ga_b | ^c3 e3- | ede fga | B2 c d3- | %86
 dGc- cB/A/B | A2 d- dc/B/c | Bbe c'/b/a/g/f/e/ | f/e/d/c/B/A/ B/A/G/F/E/D/ | Ec'b a3 | z ba ^g3 | %92
 z ag f2 e | d3- dcB | edc fed | cdTB Aa/g/f/e/ | d/e/f/e/d/c/ B/c/d/c/B/A/ | e6- | e3- e^f^g | %99
 a3- abc' | f3 ^f3 | g3 ^g3 | aea- a^g/^f/g | aAd c/B<TBA/ | %104
"^[fine]""^[fine]""^[fine]""^[fine]""^[fine]""^[fine]""^[fine]""^[fine]" !fermata!A2 c B/c/d/f/e/d/!fine! | %105
 c/B/A/^G/A/E/ D/F/E/D/C/B,/ | D/C/B,/A,/e d/e/f/a/g/f/ | e/d/c/B/c/G/ A/c/B/A/G/F/ | %108
 F/E/D/C/g/G/ _B/A/G/F/f/A/ | c/B/A/G/e/B/ d/c/B/A/a | a>g^f/a/ g/f/e/=d/c/B/ | cba g^fe | %112
 ^dc'b ag^f | g/^f/e/^d/e/G/ ^F/E/F/A/e/d/ | eBA G^FE | z/ c/B/A/^G/A/ z/ B/A/G/^F/G/ | %116
 ^c3 z/ B/A/^G/A/^F/ | BeA- AB/c/d/B/ | c/B/c/d/B/c/ A2 d- | d/f/e/d/^c/d/ z/ e/d/c/B/c/ | %120
 dAd d/e/d/^c/d/B/ | ^c2 a DE/F/G/E/ | d3 d/G/F/E/F/A/ | D/G/^F/E/F/A/ c/G/F/E/F/A/ | %124
 D/c/B/A/B/d/ g/c/B/A/B/d/ | G/c/B/A/B/d/ f/c/B/A/B/d/ | G/f/e/d/e/g/ c'/b/a/^g/a/c'/ | %127
 d/e/d/c/d/f/ b/a/g/f/g/b/ | c/d/c/B/c/e/ a/g/f/e/f/a/ | B/c/B/A/B/d/ f/A/^G/^F/G/B/ | Ee^f ^gab | %131
 c3 ^c3 | d3 ^d3 | eBe- e^d/e/^f/d/ | g3 ^f3- | ^f/f/e/^d/e- e/e/=d/c/d- | d/d/c/B/c- c/c/B/A/B- | %137
 B/B/e/d/c/B/ A/g/^f/e/^d/e/ | [^F^d][d^f][eg] [fa][Ec][^DB] | z [eg][^fa] [gb][A^d][Ge] | %140
 z c/a/B/g/ A/^f/G/e/^F/^d/ | d/e/d/e/d/e/ ^c/e/c/e/c/e/ | c/^f/c/f/c/f/ B/^g/B/g/B/g/ | %143
 a/e/c/e/B/e/ A/e/f/d/g/c/ | f/d/B/f/A/f/ G/d/c/f/B/f/ | e/c/A/e/G/e/ F/c/_B/e/A/e/ | %146
 d/B/^G/d/^F/d/ E/B/A/d/G/d/ | c/A/F/c/E/c/ D/F/A/c/B/d/ | ^G^ga bfe | z ab c'dc | %150
 z d/f/c/e/ B/d/A/c/^G/B/ | G/A/G/A/G/A/ ^F/A/F/A/F/A/ | F/B/F/B/F/B/ E/^c/E/c/E/c/ | f3 ^f3 | %154
 g3 ^g3 | aea- a^g/a/b/g/ | c'3 b3- | b/b/a/^g/a- a/a/=g/f/g | g/g/f/e/f- f/f/e/d/e- | %159
 e/e/a/g/f/e/ d/c/B/A/^G/A/ | d>cB/d/ c/B/A/^G/A/c/ | Fed cBA | ^Gfe dcB | %163
 c/^d/^f/^g/a/c/ B/A/B/=d/a/g/ | %164
 aAB"_[dal segno]\nal Fine""_[dal segno]\nal Fine""_[dal segno]\nal Fine""_[dal segno]\nal Fine""_[dal segno]\nal Fine""_[dal segno]\nal Fine""_[dal segno]\nal Fine""_[dal segno]\nal Fine" cde!D.S.! |] %165
[M:3/4][Q:1/4=45] a3/2b/4c'/4 ba^ga | d6 | d/f/e/d/ b>a ^g/f/e/d/ | c/B/c/B/ A/E/A/B/ c/d/e/f/ | %169
 g/e/^c- c z z2 | F/^c/d/^g/ a/F/E/D/ E/d/c/g/ | a/E/^D/^C/ D/^F/A/^c/ B/^G/A/^f/ | %172
 [^DAc]2 [^GB]2 z2 | c/d/e/e/ e/f/g/g/ g/a/_b/b/ | _b/g/g/e/ e/c/c/_B/ B/A/B/g/ | %175
 A/_B/c/c/ c/d/e/e/ e/f/g/g/ | g/e/e/^c/ c/A/A/G/ G/F/G/e/ | F/E/D/E/ F/G/A/B/ c/B/A/c/ | %178
 B/A/G/A/ B/c/d/e/ f/e/d/f/ | e/g/f/a/ g/c/B/c/ f/e/d/c/ |1 [EGc]6 :|2 [CEGc]6 |: e3/2f/4g/4 fedc | %183
 ^f6 | g3/2a/4b/4 a/g/^f/e/ d/B/c/a/ | c/B/c/d/ B2 [gb]2 | [gb][^fa][fa][eg][eg][^df] | %187
 ^fg/a/ c2 B2 | B/^c/^d/e/ ^f/a/g/f/ g/e/f/d/ | e2 g4 | g/f/e/e/ e/d/^c/c/ c/B/A/A/ | %191
 A/^c/c/e/ e/g/g/_b/ a/g/f/e/ | f/e/d/d/ d/c/B/B/ B/A/G/G/ | G/B/B/d/ d/f/f/a/ g/f/e/d/ | %194
 e/f/e/d/ c/B/A/^G/ A/c/e/G/ | F/d/E/c/ D/B/C/A/ B,/^G/d/f/ | e/^g/a/f/ ^d/e/^G/A/ =d/c/B/A/ |1 %197
 [EGc]6 :|2 [A,CEA]6 |][M:6/8][Q:1/4=80] e | dce cBe | B>^GA a2 e |{efg} f>ed{/d} c>dB | %203
{Bcd} c>BA A2 e | A^Ge BAe | cBe dce | Ta>^ga b>c'a | ^g3- g2 b | bc'^g gae | ef^c cda | %210
 ab^f fg^d | ^deB Bc^g | ^gae efb | bc'e e^da/4b/4c'/ | b>^de ^f/g/a/g/Tf |{/^f} e3- e2 :: b | %217
 a^gb feb | d^cg _BAg/4a/4_b/ | a>^cd e/f/g/f/e |{/g} f>ed d2 f | cBf AGf | fe_b bac | %223
 B/c/d/e/f- f/e/d/c/^f |{/^f} g3- Mg2 G | dcG edG | feG gfG | g/f/e/f/g _BAa | b/a/^g/a/b dcc' | %229
 g^fa _eda | cBd _AGd/4e/4f/ | e>ag Te>dc | c3- c2 c' | ^gae ef=g | ^cdA A_Bd | %235
 ^G/A/B/d/c/B/ c/f/e/d/c/B/ | A^G/A/B E2 e | dce cBe | B>^GA a2 e |{efg} f>eB{/d} c>dB | %240
{Bcd} c>BA g2 a/4g/4f/4e/4 | ef^c cdA | A_B^F FGd | deB Bc^G | ^GAE EF^c | ^cdA A_Be | %246
 efA A^Gd/4e/4f/ | e>^GA B/c/d/c/TB |{/B} A3 A :|[M:6/8] f/e/d/ | c/e/c/A/^G/A/ c/e/c/A/G/A/ | %251
 c/e/c/A/^G/A/ a>Ac/e/ | f/e/d/c/B/A/ ^G/f/e/d/c/B/ | c/B/A/^G/A/E/ C/E/D/C/B,/A,/ | %254
 E,/B,/D/ ^G/^d/e/ ^F,/A,/C/ A/d/e/ | ^G,/A,/B,/ D/B/d/ c/B/A/^G/A/c/ | D/c/B/A/B/d/ f/e/d/c/B/A/ | %257
 ^G/ E,/^G,/B,/E/G/ B/d/e/^g/b/d'/ | c'/b/a/^g/a/c'/ e/f/=g/_b/a/g/ | f/e/d/^c/d/f/ A/B/=c/e/d/c/ | %260
 B/A/G/^F/G/B/ d/e/f/a/g/f/ | e/d/c/B/c/e/ ^G/A/B/d/c/B/ | ^F/^G/A/ B/c/^d/ E/G/A/ c/d/e/ | %263
 ^D/^G/A/ c/^f/g/ a/f/_e/ x3/2 | z/ b/a/g/^f/e/ z/ a/g/f/e/^d/ | e/B/^G/E/B,/^G,/ E,3/2 z/ :: %266
 c'/b/a/ | ^g/b/g/e/^d/e/ f/b/f/=d/c/B/ | ^c/e/c/A/^G/A/ _B/e/B/=G/F/E/ | %269
 F/A/G/F/E/D/ ^C/_b/a/g/f/e/ | f/e/d/^c/d/A/ F/A/D/F/A/=c/ | B/E/F/D/ z/ c/ d/E/F/D/ z/ d/ | %272
 e/A/_B/G/ z/ f/ g/A/B/G/ z/ B/ | A/c/d/e/f/B/ f/e/d/c/g/^f/ | g2 z B/d/f/g/b/ z/ | %275
 z/ c/G/^F/G/c/ d/G/e/G/f/G/ | z/ e/d/c/d/e/ f/c/g/c/a/c/ | g/c/d/_B/A/G/ A/E/F/C/ z/ a/ | %278
 b/e/f/d/c/B/ c/^G/A/E/ z/ ^g/ | ^f/g/a/f/_e/d/ c/d/e/c/B/A/ | B/c/d/B/_A/G/ F/G/A/F/E/D/ | %281
 E/G/A/B/c/d/ e/g/e/c/d/B/ | c/g/e/c/G/E/ z z/ c'/b/a/ | ^g/f/e/d/e/g/ a/A/=g/f/e/d/ | %284
 ^c/_B/A/G/A/c/ d/A/=c/=B/A/^G/ | B/A/c/B/d/c/ e/d/f/e/d/c/ | B/A/^G/^F/E/^D/ ME>fe/d/ | %287
 c/e/c/A/^G/A/ c/e/c/A/G/A/ | c/e/c/A/^G/A/ a>Ac/e/ | f/e/d/c/B/A/ ^G/f/e/d/c/B/ | %290
 c/B/A/^G/A/E/ =G/_B/^c/e/f/g/ | f/e/d/^c/d/f/ A/B/=c/_e/d/c/ | B/A/G/^F/G/B/ d/e/f/a/g/f/ | %293
 e/d/c/B/c/e/ G/A/_B/d/c/B/ | A/G/F/E/F/A/ C/D/E/G/F/E/ | B,/^C/D/ E/F/^G/ A,/C/D/ F/G/A/ | %296
 ^G,/^C/D/ F/B/c/ d/B/^G/ z/ z | z/ E/^F/^G/A/B/ c/e/c/A/B/^g/ | a/e/c/A/E/C/ A,3/2 :| %299
V:2
 A,2 z2 z2 G2 | F2 z2 z2 E2 | D2 z2 z2 C2 | D2 z2 E,2 z2 | A,2 C2 F2 A,2 | B,2 D2 G2 B,2 | %6
 C2 F2 E2 G2 | C2 C2 B,2 E,2 | A,2 G2 ^F2 E2 | ^D2 ^F2 D2 B,2 | E2 B,2 ^D2 B,2 | E2 B,2 ^D2 B,2 | %12
 ECA,B, C2 B,2 | A,2 G,2 ^F,2 B,2 | E,G,A,B, CEG^C | ^D^FDB, ECA,B, | E,2 z2 z2 D2 | C2 z2 z2 B,2 | %18
 A,2 z2 z2 G,2 | A,2 z2 B,2 z2 | E,2 G,2 C2 E,2 | F,2 D2 B,2 ^G,2 | A,2 C2 F2 A,2 | B,2 G2 E2 ^C2 | %24
 D2 G2 F2 A,2 | D2 D2 G,FED | C2 C2 F,EDC | _B,A,G,F, E,D^CE | A,2 A,2 E,2 ^C2 | A,2 A,2 E,2 ^C2 | %30
 D2 F,2 G,2 z A, | _B,2 z E =FDAA, | D2 z D/^C/ D2 z D | C2 z C/B,/ C2 z C | B,2 z2 E,2 z2 | %35
 A,2 D2 C2 E2 | A,2 A,2 DCB,A, | G,2 G,2 CB,A,G, | F,E,DC B,A,^F,B, | E,2 E,2 E,2 z2 | %40
 A,2 A,2 A,2 z2 | D2 D2 D2 z2 | G,2 G,2 G,2 z2 | C2 C2 C2 z2 | F,2 F2 B,2 D2 | ^G,2 B,2 E,2 G,2 | %46
 A,2 E,2 ^G,2 E,2 | A,2 E,2 ^G,2 E,2 | A,FDE F2 E2 | D2 C2 B,2 E,2 | A,2 z B, A,2 z D | %51
 CA,EE [^F^d]2 z2 | [Ac]2 z2 B,2 z2 | D2 z2 [CE]2 z2 | [^GBe]2 z2 AFDE | [A,A]2 x6 |][M:6/8] z6 | %57
 z ED CB,A, | B,FE DCB, | C3 B,3 | A,EA- AG/^F/G | G^FE ^D3 | G2 A B3 | c3 G^FE | ^FcB AGF | %65
 G3 ^F3 | E,B,E- ED/C/D- | DCF DEE, | A,2 _B, G,A,E | ^FDG- G=F/E/^F | FE/D/E DGG, | C2 C B,2 E, | %72
 A,A,B, CDE | F,3 ^F,3 | G,3 ^G,3 | C3 A,^G,/^F,/G, | A,2 B, CDE | F2 z B,A,G, | C3- GAB | %79
 A,3 ^c3 | D3 ^D3 | E2 C A,2 B, | E,3- E,F,G, | A,2 B, GFE | D2- z DEF | G,2 A, FED | E3 G,3 | %87
 GF/E/F/G/ A,3 | E,3 A,CA, | DFD G,B,G, | C2 z c3 | D2 z B3 | C2 ^C D2 E | cBA ^G3 | CB,A, DEF | %95
 EDE F2 z | F,2 z F,2 z | E,2 z z2 z | c2 z z2 z | F,3- F,2 E | A2 z CB,A, | B,2 z E2 z | c2 c B3 | %103
 E A2 A ^G2 | [CE]2 z2 z2 | A,2 C B,2 E, | z2 c- c B2 | C2 E, F,DG, | C2 E, F,2 D | G,2 ^G, A,B,C | %110
 B,^C^D E^FG | A,A,/c/A,/c/ ^A,/^c/A,/c/A,/c/ | B,/B/B,/^d/B,/d/ C/e/C/e/A,/e/ | ^CB,^A, B,2 B, | %114
 E,3- E,^F,G, | ^F,^G,A, G,A,B, | A,AG ^FE^D | EDC FDE | A,2 z A,G,F, | B,^CD CDE | DDC _B,A,^G, | %121
 A,G,F,- F,E,A, | D2 z z DC | _B,A,G, ^F,A,D | G,2 z z GF | EDC B,DG, | CCB, A,cA | FBA GBG | %128
 EAG FAF | DFD B,DB, | ^G,/E/D/E/C/D/ B,/D/A,/D/^G,/D/ | A,/A/G/_B/F/A/ E/G/A,/F/G,/E/ | %132
 F/B/A/c/G/B/ ^F/A/B,/G/A,/F/ | G, z C A,B,B, | E,2 C A,B,A, | G,G,C F,B,B, | E,EA, DDG, | %137
 [CE]2 z [CE]2 z | B,2 z z2 z | B,3 z2 z | B,3 z B,A, | ^G,^F,E, A,2 A, | A,2 A, A,2 A, | %143
 A,ED ^CB,A, | DDC B,A,G, | CCB, A,G,F, | B,B,A, ^G,^F,E, | A,A,G, F,ED | E2 z z2 z | z cd e^GA | %150
 E,2 z z ED | ^CB,A, D2 D | D2 A, D2 D | D/d/c/_e/_B/d/ A/c/D/B/C/A/ | %154
 _B,/e/d/f/c/e/ _B/d/E/c/D/B/ | C2 F DEE, | A,2 F DED | CCF B,EE, | A,AD G,GC | F,3 z3 | %160
 E,^F,^G, A,B,C | D/F/D/F/D/F/ ^D/^F/D/F/D/F/ | E/^G/E/G/E/G/ F/A/F/A/F/A/ | ^FE^D E2 E, | %164
 A,2 z z2 z |][M:3/4] C2 A,2 A,2 | A,3/2A,/4C/4 B,A,^G,A, | G,2 A,2 A,2 | A,2 z2 z2 | A,2 A,2 A,2 | %170
 A,2 A,2 A,2 | A,2 A,2 A,2 | E,2 E=DCB, | A, z G, z F, z | E,2 z GCE | F z E z D z | ^C2 z EA,C | %177
 D2 z DEF | G2 z G,A,B, | CB,E,F,G,G, |1 CCCB,B,A, :|2 x6 |: C2 C2 C2 | C3/2D/4E/4 DCB,A, | %184
 B,2 C2 D2 | G,3 B,EG | C2 z2 z A | AG ^FE DE/F/ | G,2 A,2 B,2 | E,EEDD^C | ^C2 z A,A,C | %191
 GE^CECA, | D2 z DDB, | FDB,DB,G, | C2 z E CA, | DEDCB,B, | CB,CF,E,E, |1 CCCB,B,A, :|2 x6 |] %199
[M:6/8] z | A,2 z G,2 z | F,2 z C2 z | D2 z E2 z | A,2 B, CB,A, | E,2 z ^F,2 z | ^G,2 z A,2 z | %206
 F2 z D2 z | E,>^G,B, E>^F^G | A,2 B, C2 ^C | D2 E F2 ^F | G2 A B2 A | G2 F E2 D | C2 z ^G2 z | %213
 A2 z ^F2 z | G2 E B2 B, | E,>^G,B, E2 :: z | E,2 z ^G,2 z | A,2 z ^C2 z | D2 _B, G,2 A, | %220
 D2 E FED | G,2 z B,2 z | C2 z F2 E | D2 B, C2 A, | G,B,D FEF | E2 z B,2 z | C2 z D2 z | %227
 E2 z FF z | ^G2 z A2 z | D2 z ^F2 z | G2 z B,2 z | C2 E G2 G, | C>ED C>B,A, | B,2 ^C D2 E | %234
 F2 E D2 C | B,2 E, A,2 F, | E,3- E,>^F,^G, | A,2 z G,2 z | F,2 z C2 z | D2 z E2 z | %240
 A,2 B, ^C2 A, | D2 E F2 ^F, | G,2 A, _B,2 =B, | C2 D E2 D | C2 _B, A,2 G, | F,2 z ^C2 z | %246
 D2 z B,2 z | C2 A, E2 E, | A,>CE C :|[M:6/8] z/ z | A,2 z G,2 z | F,2 z C/A,/E/ z/ z | D2 z E2 z | %253
 A,2 z z2 x | x6 | x3 A,2 z | F,2 z D2 z | z/ x11/2 | A,2 z C2 z | D2 z F2 z | G,2 z B,2 z | %261
 C2 z E2 z | x6 | x3 B,>cB/A/ | G2 z B2 z | E2 z z x :: z z/ | E,2 z ^G,2 z | G,2 z ^C2 z | %269
 D2 F, E,2 A, | D2 z z F,F, | G, z G, B, z G, | C z C E z C | F2 D C2 A, | %274
 z/ G,/B,/D/F/G/ z2 z/ F/ | E z z B, z z | C z z D z z | E z C F, z F, | ^G, z E, A, z A, | %279
 D2 z ^F2 z | G2 z B,2 z | C2 E G2 G, | C2 z C2 z | B,CD C^CD | EFG FDE | ^F^GA =FCD | %286
 E,3- E,^G,E, | A,2 z G,2 z | F,2 z C/A,/E/ z/ z | D2 z E2 z | A,2 z z2 z | D2 z F,2 z | %292
 G,2 z B,2 z | C2 z E,2 z | F,2 z A,2 z | x6 | x3 E,>FE/D/ | C2 A, E2 E, | A,3 x3/2 :| %299
V:3
 x8 | x8 | x8 | x8 | x8 | x8 | x8 | x8 | x8 | x8 | x8 | x8 | x8 | x8 | x8 | x8 | x8 | x8 | x8 | %19
 x8 | x8 | x8 | x8 | x8 | x8 | x8 | x8 | x8 | x8 | x8 | x8 | x8 | x8 | x8 | x8 | x8 | x8 | x8 | %38
 x8 | x8 | x8 | x8 | x8 | x8 | x8 | x8 | x8 | x8 | x8 | x8 | x8 | x8 | x8 | x8 | x8 | x8 |] %56
[M:6/8] x6 | x6 | x6 | x6 | x6 | x6 | E3- E^FG | A,3 z2 A, | D3 z2 B, | E2 C A,2 B, | E2 z z2 z | %67
 z2 c B e2 | ^cAd e2 a | cB/A/B A2 A | B2 c- cB/A/B- | BEA- A^G/^F/G | x6 | AED z2 d- | dBc DCB, | %75
 A,E,A, B,3 | A,2 z z2 z | z DC z2 z | z EF C2 B, | c3 z2 A, | D3 z2 B, | EBe- e^d/^c/d | %82
 g2 z z2 z | z _BA ^C3 | F2 z z2 z | z AG B,3 | C3 z DG | D3 E2 A- | A^G/^F/G A2 z | x6 | %90
 x ed z FE | z dc z ED | x2 e- edc- | F3- FED | A2 z A2 z | A2 ^G A2 x | x6 | z E^F ^GAB | %98
 z E^F ^GAB | z AB cde | DED A2 z | dfe dcB | A,2 F DED | CFD E3 | A,E,A,- A, ^G,2 | x6 | %106
 A,E,G, FDG | x6 | x6 | x6 | [^F^d]2 z2 z2 | x6 | x6 | x6 | x6 | ^d3 =d3 | A z2 =c3 | ^G2 z z2 z | %118
 z ED CB,A, | ^G3 =G3 | ^F3 =F3 | EAD B ^c2 | F/G/F/E/F/A/ z2 z | x6 | x6 | x6 | x6 | x6 | x6 | %129
 x6 | x6 | x6 | x6 | B, z z2 z2 | z BE- E^d/E/^f/^D/ | B2- B/B/ A2- A/A/ | G2- G/G/ ^F2- F/F/ | %137
 x6 | x6 | x6 | x6 | E2 z E2 z | ^D2 z =D2 z | c2 z2 z2 | x6 | x6 | x6 | x6 | z Bc dA^G | %149
 E2 z z2 z | x6 | z2 z a3 | ^g2 x =g3 | x6 | x6 | E z z z2 z | z Ea- a^g/a/b/g/ | %157
 e2- e/e/ d2- d/d/ | c2- c/c/ B2- B/B/ | A x5 | ^G2 z2 z2 | x6 | x6 | x6 | x4 z2 |][M:3/4] x3 cBc | %166
 [FB]6 | [FB]2 [^Gd]2 z2 | x6 | z G- G/_B/A/G/ A/G/F/E/ | x6 | x6 | x6 | x6 | x6 | x6 | x6 | x6 | %178
 x6 | x6 |1 x6 :|2 x6 |: [Gc]2 AGFE | [DA]6 | [Gd]2 e2 z A | [DA]2 G2 z2 | z4 z z | de A4 | x6 | %189
 [GB]2 z _BBA | [EA]2 z2 z2 | x6 | x6 | x6 | x6 | x6 | x6 |1 x6 :|2 x6 |][M:6/8] x | x6 | x6 | x6 | %203
 x6 | x6 | x6 | x6 | x6 | x6 | x6 | x6 | x6 | x6 | x6 | x6 | x5 :: x | x6 | x6 | x6 | x6 | x6 | %222
 x6 | x6 | x6 | x6 | x6 | x6 | x6 | x6 | x6 | x6 | x6 | x6 | x6 | x6 | x6 | x6 | x6 | x6 | x6 | %241
 x6 | x6 | x6 | x6 | x6 | x6 | x6 | x4 :|[M:6/8] x3/2 | x6 | x6 | x6 | x6 | x6 | x6 | x6 | x6 | %258
 x6 | x6 | x6 | x6 | x6 | x6 | x6 | x5 :: x3/2 | x6 | x6 | x6 | x6 | x6 | x6 | x6 | x6 | x6 | x6 | %277
 x6 | x6 | x6 | x6 | x6 | x6 | x6 | x6 | x6 | x6 | x6 | x6 | x6 | x6 | x6 | x6 | x6 | x6 | x6 | %296
 x6 | x6 | x9/2 :| %299
V:4
 x8 | x8 | x8 | x8 | x8 | x8 | x8 | x8 | x8 | x8 | x8 | x8 | x8 | x8 | x8 | x8 | x8 | x8 | x8 | %19
 x8 | x8 | x8 | x8 | x8 | x8 | x8 | x8 | x8 | x8 | x8 | x8 | x8 | x8 | x8 | x8 | x8 | x8 | x8 | %38
 x8 | x8 | x8 | x8 | x8 | x8 | x8 | x8 | x8 | x8 | x8 | x8 | x8 | x8 | x8 | x8 | x8 | x8 |] %56
[M:6/8] x6 | x6 | x6 | x6 | x6 | x6 | x6 | x6 | x6 | x6 | x6 | x6 | x6 | x6 | x6 | x6 | x6 | x6 | %74
 x6 | x6 | x6 | x6 | x6 | x6 | x6 | x6 | x6 | x6 | x6 | x6 | x6 | x6 | x6 | x6 | x6 | x6 | x6 | %93
 x6 | x6 | x6 | x6 | x6 | x6 | x6 | x6 | x6 | x6 | x6 | x6 | x6 | x6 | x6 | x6 | x6 | x6 | x6 | %112
 x6 | x6 | x6 | x6 | x6 | x6 | x6 | E, z z E, z z | x6 | x6 | x6 | x6 | x6 | x6 | x6 | x6 | x6 | %129
 x6 | x6 | x6 | x6 | x6 | x6 | x6 | x6 | x6 | x6 | x6 | x6 | x6 | x6 | x6 | x6 | x6 | x6 | x6 | %148
 x6 | x6 | x6 | x6 | x6 | x6 | x6 | x6 | x6 | x6 | x6 | x6 | x6 | x6 | x6 | x6 | x6 |][M:3/4] x6 | %166
 x6 | x6 | x6 | x6 | x6 | x6 | x6 | x6 | x6 | x6 | x6 | x6 | x6 | x6 |1 x6 :|2 x6 |: x6 | x6 | x6 | %185
 x6 | x6 | x6 | x6 | x6 | x6 | x6 | x6 | x6 | x6 | x6 | x6 |1 x6 :|2 x6 |][M:6/8] x | x6 | x6 | %202
 x6 | x6 | x6 | x6 | x6 | x6 | x6 | x6 | x6 | x6 | x6 | x6 | x6 | x5 :: x | x6 | x6 | x6 | x6 | %221
 x6 | x6 | x6 | x6 | x6 | x6 | x6 | x6 | x6 | x6 | x6 | x6 | x6 | x6 | x6 | x6 | x6 | x6 | x6 | %240
 x6 | x6 | x6 | x6 | x6 | x6 | x6 | x6 | x4 :|[M:6/8] x3/2 | x6 | x6 | x6 | x6 | x6 | x6 | x6 | %257
 x6 | x6 | x6 | x6 | x6 | x6 | x6 | x6 | x5 :: x3/2 | x6 | x6 | x6 | x6 | x6 | x6 | x6 | x6 | x6 | %276
 x6 | x6 | x6 | x6 | x6 | x6 | x6 | x6 | x6 | x6 | x6 | x6 | x6 | x6 | x6 | x6 | x6 | x6 | x6 | %295
 x6 | x6 | x6 | x9/2 :| %299

